assets/images/arbor-lines-proto-colour.svg

<?xml version="1.0" encoding="UTF-8" standalone="no"?>
<!-- Created with sK1 2.0rc3 (http://sk1project.net/) -->

<svg
   xmlns:dc="http://purl.org/dc/elements/1.1/"
   xmlns:cc="http://creativecommons.org/ns#"
   xmlns:rdf="http://www.w3.org/1999/02/22-rdf-syntax-ns#"
   xmlns:svg="http://www.w3.org/2000/svg"
   xmlns="http://www.w3.org/2000/svg"
   xmlns:sodipodi="http://sodipodi.sourceforge.net/DTD/sodipodi-0.dtd"
   xmlns:inkscape="http://www.inkscape.org/namespaces/inkscape"
   height="40"
   viewBox="0 0 211 39.999998"
   width="211"
   version="1.1"
   id="svg2"
   sodipodi:docname="arbor-lines-proto-colour.svg"
   inkscape:version="0.92.3 (2405546, 2018-03-11)">
  <metadata
     id="metadata31">
    <rdf:RDF>
      <cc:Work
         rdf:about="">
        <dc:format>image/svg+xml</dc:format>
        <dc:type
           rdf:resource="http://purl.org/dc/dcmitype/StillImage" />
        <dc:title></dc:title>
      </cc:Work>
    </rdf:RDF>
  </metadata>
  <defs
     id="defs29" />
  <sodipodi:namedview
     pagecolor="#ffffff"
     bordercolor="#666666"
     borderopacity="1"
     objecttolerance="10"
     gridtolerance="10"
     guidetolerance="10"
     inkscape:pageopacity="0"
     inkscape:pageshadow="2"
     inkscape:window-width="1955"
     inkscape:window-height="765"
     id="namedview27"
     showgrid="false"
     inkscape:zoom="2.5867405"
     inkscape:cx="166.23594"
     inkscape:cy="37.524145"
     inkscape:window-x="41"
     inkscape:window-y="27"
     inkscape:window-maximized="0"
     inkscape:current-layer="svg2" />
  <g
     id="g24"
     transform="matrix(0.30075999,0,0,0.30075999,0,-0.4650523)">
    <g
       id="g14">
      <g
         id="g12">
        <path
           style="fill:#000000"
           d="m 297.309,43.887 v 4.0312 c -6.4922,-4.3086 -14.2305,-6.8437 -23.961,-6.8437 -23.582,0 -43.3984,19.8125 -43.3984,45.8711 0,25.8867 19.8164,46.0508 43.3984,46.0508 9.7305,0 17.4688,-2.6954 23.961,-7.0196 v 5.1446 h 29.168 V 43.887 Z m -18.0117,64.2695 c -11.8868,0 -20.711,-9.1601 -20.711,-21.2109 0,-12.0313 8.8242,-21.1914 20.711,-21.1914 6.3007,0 12.4297,1.6132 18.0117,7.7226 v 26.9531 c -5.582,6.0977 -11.711,7.7266 -18.0117,7.7266 z"
           id="path2"
           inkscape:connector-curvature="0" />
        <path
           style="fill:#000000"
           d="m 405.8988,42.012 c -12.957,0 -22.3242,4.1601 -30.0742,10.8437 V 43.887 h -29.3594 v 87.2344 h 29.3594 V 80.7932 c 6.8438,-6.6992 15.8555,-10.4961 30.0742,-11.039 z"
           id="path4"
           inkscape:connector-curvature="0" />
        <path
           style="fill:#000000"
           d="m 473.6957,42.012 c -9.5391,0 -17.2773,2.5351 -23.7695,6.6679 V 3.5549 h -29.3594 v 127.5665 h 29.3594 v -4.7774 c 6.4922,4.1328 14.2304,6.6524 23.7695,6.6524 23.5977,0 43.4141,-19.8008 43.4141,-45.5665 0,-25.6015 -19.8164,-45.4179 -43.4141,-45.4179 z m -5.7578,66.4961 c -6.3047,0 -12.6055,-1.586 -18.0117,-7.4336 V 74.137 c 5.4062,-5.8477 11.707,-7.4453 18.0117,-7.4453 11.8867,0 20.5312,9.0429 20.5312,20.7382 0,12.0469 -8.6445,21.0782 -20.5312,21.0782 z"
           id="path6"
           inkscape:connector-curvature="0" />
        <path
           style="fill:#000000"
           d="m 577.2582,41.0745 c -27.7305,0 -48.0859,19.6367 -48.0859,45.8711 0,26.6015 20.3554,46.0508 48.0859,46.0508 27.5547,0 47.9102,-19.4493 47.9102,-46.0508 0,-26.2344 -20.3555,-45.8711 -47.9102,-45.8711 z m 0,67.2578 c -12.2539,0 -20.3594,-8.9844 -20.3594,-21.1953 0,-11.8555 8.1055,-21.3828 20.3594,-21.3828 12.0625,0 20.168,9.5273 20.168,21.3828 0,12.2109 -8.1055,21.1953 -20.168,21.1953 z"
           id="path8"
           inkscape:connector-curvature="0" />
        <path
           style="fill:#000000"
           d="m 698.5551,42.012 c -12.9571,0 -22.3242,4.1601 -30.0781,10.8437 V 43.887 h -29.3555 v 87.2344 H 668.477 V 80.7932 c 6.8476,-6.6992 15.8593,-10.4961 30.0781,-11.039 z"
           id="path10"
           inkscape:connector-curvature="0" />
      </g>
    </g>
    <path
       style="fill:#d86310;fill-rule:evenodd"
       d="m 0,104.3335 v 24.5142 l 206.25,-0.0458 v -24.4226 z"
       id="path16"
       inkscape:connector-curvature="0" />
    <path
       style="fill:#000000;fill-rule:evenodd"
       d="m 123.0743,38.9667 c 1.1064,4.6408 2.1097,9.409 3.0799,14.1449 0.7283,3.5552 1.4246,6.9882 2.1221,10.3949 L 206.25,63.5761 V 39.0399 Z"
       id="path18"
       inkscape:connector-curvature="0" />
    <path
       style="fill:#000000;fill-rule:evenodd"
       d="m 0,38.9667 v 24.6057 l 37.5531,-0.0659 c 1.8287,-5.9164 3.3501,-14.2671 4.7937,-22.6373 0.1101,-0.6384 0.2166,-1.266 0.3241,-1.9025 z"
       id="path20"
       inkscape:connector-curvature="0" />
    <path
       style="fill:#a53c00;fill-rule:evenodd"
       d="M 80.3375,0 C 78.2692,-0.0024 76.1818,0.3203 74.154,1.062 67.6652,3.4356 64.1949,8.4858 62.0489,12.8485 57.757,21.574 56.5532,31.0568 54.9206,40.7446 c -1.6325,9.6879 -3.3679,19.3664 -5.5847,25.1972 -1.1037,2.9031 -2.3227,4.6727 -2.7814,5.1416 H 0 v 24.5471 h 46.8732 c 6.6003,0 13.0434,-3.1384 17.1276,-7.2729 4.0843,-4.1345 6.4394,-8.8789 8.2709,-13.6963 3.663,-9.6348 5.2323,-20.2411 6.85,-29.8407 1.0828,-6.4257 2.2052,-10.0197 3.316,-14.1522 0.4491,0.9915 0.8599,1.4928 1.2598,2.7136 2.1351,6.5185 4.1289,15.4514 6.0132,24.6496 1.8843,9.1983 3.6817,18.6775 5.8136,26.9971 1.4269,5.5685 2.4005,10.4957 4.8871,15.2051 h 71.6894 c 9.7863,-3.0301 21.747,-4.0156 34.1492,-4.4074 V 71.1511 c -17.5031,0.2791 -36.8168,1.635 -54.0894,10.8545 -9.5421,5.0933 -17.2844,8.6996 -21.8536,9.6607 -4.5692,0.9611 -4.593,1.0775 -7.2803,-1.6828 1.3459,1.3825 -1.9011,-3.9085 -3.7317,-11.0522 -1.8305,-7.1437 -3.6144,-16.4146 -5.5426,-25.827 -1.9282,-9.4125 -3.979,-18.9559 -6.7328,-27.3633 C 104.2659,17.3336 102.0021,9.3494 92.8656,3.7482 90.3018,2.1764 87.2478,0.9101 84.0216,0.3351 82.8118,0.1195 81.5785,0.0015 80.3375,0 Z"
       id="path22"
       inkscape:connector-curvature="0" />
  </g>
</svg>

<?xml version="1.0" encoding="utf-8"?>
<!-- Created with sK1 2.0rc3 (http://sk1project.net/) -->
<svg xmlns:rdf="http://www.w3.org/1999/02/22-rdf-syntax-ns#" xmlns="http://www.w3.org/2000/svg" xmlns:svg="http://www.w3.org/2000/svg" height="133.46145" viewBox="0 0 697.610161417 133.46145" width="697.610161417" version="1.1" xmlns:cc="http://creativecommons.org/ns#" xmlns:xlink="http://www.w3.org/1999/xlink" id="svg2" xmlns:dc="http://purl.org/dc/elements/1.1/">

<g>
	<g>
		<g>
			<path style="fill:#000000;" d="M 297.309,43.887 L 297.309,47.9182 C 290.8168,43.6096 283.0785,41.0745 273.348,41.0745 249.766,41.0745 229.9496,60.887 229.9496,86.9456 229.9496,112.8323 249.766,132.9964 273.348,132.9964 283.0785,132.9964 290.8168,130.301 297.309,125.9768 L 297.309,131.1214 326.477,131.1214 326.477,43.887 Z M 279.2973,108.1565 C 267.4105,108.1565 258.5863,98.9964 258.5863,86.9456 258.5863,74.9143 267.4105,65.7542 279.2973,65.7542 285.598,65.7542 291.727,67.3674 297.309,73.4768 L 297.309,100.4299 C 291.727,106.5276 285.598,108.1565 279.2973,108.1565 Z" />
			<path style="fill:#000000;" d="M 405.8988,42.012 C 392.9418,42.012 383.5746,46.1721 375.8246,52.8557 L 375.8246,43.887 346.4652,43.887 346.4652,131.1214 375.8246,131.1214 375.8246,80.7932 C 382.6684,74.094 391.6801,70.2971 405.8988,69.7542 Z" />
			<path style="fill:#000000;" d="M 473.6957,42.012 C 464.1566,42.012 456.4184,44.5471 449.9262,48.6799 L 449.9262,3.5549 420.5668,3.5549 420.5668,131.1214 449.9262,131.1214 449.9262,126.344 C 456.4184,130.4768 464.1566,132.9964 473.6957,132.9964 497.2934,132.9964 517.1098,113.1956 517.1098,87.4299 517.1098,61.8284 497.2934,42.012 473.6957,42.012 Z M 467.9379,108.5081 C 461.6332,108.5081 455.3324,106.9221 449.9262,101.0745 L 449.9262,74.137 C 455.3324,68.2893 461.6332,66.6917 467.9379,66.6917 479.8246,66.6917 488.4691,75.7346 488.4691,87.4299 488.4691,99.4768 479.8246,108.5081 467.9379,108.5081 Z" />
			<path style="fill:#000000;" d="M 577.2582,41.0745 C 549.5277,41.0745 529.1723,60.7112 529.1723,86.9456 529.1723,113.5471 549.5277,132.9964 577.2582,132.9964 604.8129,132.9964 625.1684,113.5471 625.1684,86.9456 625.1684,60.7112 604.8129,41.0745 577.2582,41.0745 Z M 577.2582,108.3323 C 565.0043,108.3323 556.8988,99.3479 556.8988,87.137 556.8988,75.2815 565.0043,65.7542 577.2582,65.7542 589.3207,65.7542 597.4262,75.2815 597.4262,87.137 597.4262,99.3479 589.3207,108.3323 577.2582,108.3323 Z" />
			<path style="fill:#000000;" d="M 698.5551,42.012 C 685.598,42.012 676.2309,46.1721 668.477,52.8557 L 668.477,43.887 639.1215,43.887 639.1215,131.1214 668.477,131.1214 668.477,80.7932 C 675.3246,74.094 684.3363,70.2971 698.5551,69.7542 Z" />
		</g>
	</g>
	<path style="fill-rule:evenodd;fill:#d86310;" d="M -0.0,104.3335 L -0.0,128.8477 206.25,128.8019 206.25,104.3793 -0.0,104.3335 Z" />
	<path style="fill-rule:evenodd;fill:#000000;" d="M 123.0743,38.9667 C 124.1807,43.6075 125.184,48.3757 126.1542,53.1116 126.8825,56.6668 127.5788,60.0998 128.2763,63.5065 L 206.25,63.5761 206.25,39.0399 123.0743,38.9667 Z" />
	<path style="fill-rule:evenodd;fill:#000000;" d="M -0.0,38.9667 L -0.0,63.5724 37.5531,63.5065 C 39.3818,57.5901 40.9032,49.2394 42.3468,40.8692 42.4569,40.2308 42.5634,39.6032 42.6709,38.9667 L -0.0,38.9667 Z" />
	<path style="fill-rule:evenodd;fill:#a53c00;" d="M 80.3375,0.0 C 78.2692,-0.0024 76.1818,0.3203 74.154,1.062 67.6652,3.4356 64.1949,8.4858 62.0489,12.8485 57.757,21.574 56.5532,31.0568 54.9206,40.7446 53.2881,50.4325 51.5527,60.111 49.3359,65.9418 48.2322,68.8449 47.0132,70.6145 46.5545,71.0834 L -0.0,71.0834 -0.0,95.6305 46.8732,95.6305 C 53.4735,95.6305 59.9166,92.4921 64.0008,88.3576 68.0851,84.2231 70.4402,79.4787 72.2717,74.6613 75.9347,65.0265 77.504,54.4202 79.1217,44.8206 80.2045,38.3949 81.3269,34.8009 82.4377,30.6684 82.8868,31.6599 83.2976,32.1612 83.6975,33.382 85.8326,39.9005 87.8264,48.8334 89.7107,58.0316 91.595,67.2299 93.3924,76.7091 95.5243,85.0287 96.9512,90.5972 97.9248,95.5244 100.4114,100.2338 L 172.1008,100.2338 C 181.8871,97.2037 193.8478,96.2182 206.25,95.8264 L 206.25,71.1511 C 188.7469,71.4302 169.4332,72.7861 152.1606,82.0056 142.6185,87.0989 134.8762,90.7052 130.307,91.6663 125.7378,92.6274 125.714,92.7438 123.0267,89.9835 124.3726,91.366 121.1256,86.075 119.295,78.9313 117.4645,71.7876 115.6806,62.5167 113.7524,53.1043 111.8242,43.6918 109.7734,34.1484 107.0196,25.741 104.2659,17.3336 102.0021,9.3494 92.8656,3.7482 90.3018,2.1764 87.2478,0.9101 84.0216,0.3351 82.8118,0.1195 81.5785,0.0015 80.3375,0.0 Z" />
</g>
</svg>
